static/logos/google-wordmark-color.svg

<svg width="100" height="33" viewBox="0 0 100 33" fill="none" xmlns="http://www.w3.org/2000/svg">
<g clip-path="url(#clip0_1_2626)">
<path d="M12.3159 0.00292969H13.2052C16.2924 0.0700438 19.3294 1.31165 21.5106 3.50964C20.7052 4.33179 19.883 5.12038 19.0945 5.94253C17.8696 4.83514 16.3931 3.97944 14.7824 3.67743C12.3998 3.17407 9.8327 3.62709 7.83606 4.98615C5.65485 6.41233 4.17834 8.82843 3.85955 11.4123C3.5072 13.9627 4.22868 16.6472 5.88975 18.6271C7.48371 20.5566 9.9166 21.7647 12.4334 21.8486C14.7824 21.9828 17.232 21.2613 18.9434 19.617C20.2857 18.4593 20.9065 16.6976 21.1079 14.9862C18.3226 14.9862 15.5374 15.0029 12.7522 14.9862V11.5298H24.4804C25.0844 15.2378 24.2119 19.4157 21.3931 22.0667C19.5139 23.9459 16.9132 25.0533 14.2622 25.2714C11.6951 25.5231 9.04411 25.0365 6.76223 23.7949C4.02733 22.3351 1.84613 19.8687 0.7723 16.966C-0.234411 14.2982 -0.25119 11.2781 0.688408 8.59353C1.54411 6.14387 3.18841 3.97944 5.3025 2.46937C7.3327 0.976084 9.79915 0.153936 12.3159 0.00292969Z" fill="#3780FF"/>
<path d="M79.5938 0.875366H83.1844V24.8351C81.9931 24.8351 80.785 24.8519 79.5938 24.8183C79.6105 16.8485 79.5938 8.86194 79.5938 0.875366V0.875366Z" fill="#38B137"/>
<path d="M32.4628 9.1807C34.6775 8.76124 37.0769 9.23103 38.9057 10.5565C40.5668 11.731 41.7245 13.5767 42.0769 15.5901C42.5299 17.9223 41.9594 20.4726 40.4494 22.3183C38.8218 24.382 36.1541 25.4894 33.5534 25.3216C31.1708 25.1874 28.8554 23.9961 27.446 22.0498C25.852 19.9022 25.4661 16.9492 26.3386 14.4324C27.2111 11.731 29.6775 9.66728 32.4628 9.1807V9.1807ZM32.9661 12.3686C32.0601 12.6035 31.2212 13.1237 30.6171 13.8619C28.9896 15.8082 29.0903 18.9794 30.8856 20.7914C31.9091 21.8317 33.4527 22.3183 34.8789 22.033C36.2044 21.7981 37.3621 20.9089 37.9997 19.7344C39.1071 17.7377 38.7883 14.9861 37.0937 13.4257C36.0031 12.419 34.4091 11.9995 32.9661 12.3686Z" fill="#FA3913"/>
<path d="M50.2544 9.18071C52.7879 8.69414 55.5564 9.39883 57.4524 11.1774C60.5396 13.9458 60.8752 19.1304 58.241 22.3183C56.647 24.3317 54.0631 25.4391 51.5128 25.3217C49.0799 25.2545 46.6806 24.0465 45.2376 22.0498C43.6101 19.8519 43.2577 16.8317 44.1806 14.2646C45.1034 11.6472 47.5195 9.65051 50.2544 9.18071V9.18071ZM50.7577 12.3686C49.8517 12.6035 49.0128 13.1237 48.4087 13.8451C46.798 15.7579 46.8651 18.8787 48.5933 20.7076C49.6168 21.7982 51.2108 22.3351 52.6873 22.0331C53.996 21.7814 55.1705 20.9089 55.8081 19.7344C56.8987 17.721 56.5799 14.9693 54.8685 13.4089C53.7779 12.4022 52.1839 11.9995 50.7577 12.3686Z" fill="#FCBD06"/>
<path d="M65.3389 10.1539C67.2685 8.94585 69.8356 8.61028 71.9161 9.65054C72.5705 9.93578 73.1074 10.4224 73.6275 10.9089C73.6443 10.4559 73.6275 9.98612 73.6443 9.51632C74.7685 9.5331 75.8926 9.51632 77.0336 9.53309V24.3318C77.0168 26.5633 76.4463 28.9291 74.8356 30.5566C73.0738 32.3519 70.3725 32.9056 67.9396 32.5365C65.3389 32.1505 63.0738 30.2546 62.0671 27.8552C63.0738 27.3687 64.1309 26.9828 65.1711 26.5297C65.7584 27.9056 66.9497 29.0801 68.443 29.3485C69.9362 29.617 71.6644 29.2479 72.6376 28.0062C73.6779 26.7311 73.6779 24.9861 73.6275 23.4257C72.8557 24.1807 71.9664 24.8519 70.8926 25.1036C68.5604 25.7579 65.9933 24.9526 64.198 23.3754C62.3859 21.7982 61.3121 19.3653 61.4128 16.9492C61.4631 14.2143 63.0067 11.5801 65.3389 10.1539V10.1539ZM68.8121 12.3016C67.7886 12.4693 66.8322 13.0398 66.1779 13.8284C64.6007 15.7076 64.6007 18.7109 66.1946 20.5566C67.1007 21.6472 68.5604 22.2512 69.9698 22.1002C71.2953 21.966 72.5201 21.1271 73.1745 19.9693C74.2819 18.0063 74.0973 15.3385 72.604 13.6271C71.6812 12.57 70.2047 12.0499 68.8121 12.3016V12.3016Z" fill="#3780FF"/>
<path d="M87.4971 11.0096C89.5105 9.13039 92.6145 8.4928 95.1984 9.48273C97.6481 10.4056 99.2085 12.7378 99.9971 15.1371C96.3562 16.6472 92.732 18.1405 89.0911 19.6505C89.5944 20.6069 90.3662 21.4794 91.4065 21.8317C92.8662 22.3519 94.6112 22.1673 95.836 21.1941C96.3226 20.825 96.7085 20.3384 97.0776 19.8686C98.0004 20.4894 98.9233 21.0935 99.8461 21.7143C98.5374 23.6774 96.3394 25.0532 93.9736 25.2713C91.3562 25.5901 88.5709 24.5834 86.8763 22.5364C84.0911 19.3149 84.3595 13.9123 87.4971 11.0096V11.0096ZM89.2924 14.1136C88.7219 14.9358 88.487 15.9425 88.5038 16.9324C90.9367 15.9257 93.3696 14.919 95.8025 13.8955C95.3998 12.9559 94.4266 12.3854 93.4367 12.2344C91.8427 11.9492 90.1817 12.8049 89.2924 14.1136V14.1136Z" fill="#FA3913"/>
</g>
<defs>
<clipPath id="clip0_1_2626">
<rect width="100" height="32.64" fill="white"/>
</clipPath>
</defs>
</svg>

<svg xmlns="http://www.w3.org/2000/svg" width="193.939" height="64" fill="none" viewBox="0 0 100 33"><g clip-path="url(#a)"><path fill="#3780FF" d="M12.316.003h.89c3.086.067 6.123 1.309 8.305 3.507-.806.822-1.628 1.61-2.416 2.433-1.225-1.108-2.702-1.964-4.313-2.266-2.382-.503-4.95-.05-6.946 1.31-2.181 1.425-3.658 3.841-3.976 6.425-.353 2.55.369 5.235 2.03 7.215 1.594 1.93 4.027 3.138 6.543 3.222 2.35.134 4.799-.588 6.51-2.232 1.343-1.158 1.963-2.92 2.165-4.63-2.785 0-5.57.016-8.356 0V11.53H24.48c.604 3.708-.268 7.886-3.087 10.537-1.88 1.879-4.48 2.986-7.13 3.204-2.568.252-5.219-.235-7.5-1.476-2.736-1.46-4.917-3.926-5.99-6.829-1.007-2.668-1.024-5.688-.085-8.372.856-2.45 2.5-4.615 4.615-6.125C7.332.976 9.799.154 12.316.003Z"/><path fill="#38B137" d="M79.594.875h3.59v23.96c-1.19 0-2.399.017-3.59-.017.017-7.97 0-15.956 0-23.943Z"/><path fill="#FA3913" d="M32.463 9.18c2.215-.419 4.614.051 6.443 1.377a7.881 7.881 0 0 1 3.17 5.033c.454 2.332-.117 4.883-1.627 6.728-1.627 2.064-4.295 3.171-6.896 3.004-2.382-.135-4.698-1.326-6.107-3.272-1.594-2.148-1.98-5.1-1.107-7.618.872-2.701 3.338-4.765 6.124-5.251Zm.503 3.189a4.512 4.512 0 0 0-2.349 1.493c-1.627 1.946-1.527 5.117.269 6.93 1.023 1.04 2.567 1.526 3.993 1.241 1.325-.235 2.483-1.124 3.12-2.299 1.108-1.996.79-4.748-.905-6.308-1.09-1.007-2.685-1.427-4.128-1.057Z"/><path fill="#FCBD06" d="M50.254 9.18c2.534-.486 5.302.219 7.198 1.997 3.088 2.769 3.423 7.953.789 11.141-1.594 2.014-4.178 3.121-6.728 3.004-2.433-.067-4.832-1.275-6.275-3.272-1.628-2.198-1.98-5.218-1.057-7.785.922-2.618 3.339-4.614 6.073-5.084Zm.504 3.189a4.589 4.589 0 0 0-2.35 1.476c-1.61 1.913-1.543 5.034.185 6.863 1.024 1.09 2.618 1.627 4.094 1.325 1.309-.252 2.483-1.124 3.121-2.299 1.09-2.013.772-4.765-.94-6.325-1.09-1.007-2.684-1.41-4.11-1.04Z"/><path fill="#3780FF" d="M65.339 10.154c1.93-1.208 4.497-1.544 6.577-.503.654.285 1.191.771 1.712 1.258.016-.453 0-.923.016-1.393 1.124.017 2.249 0 3.39.017v14.799c-.017 2.231-.588 4.597-2.198 6.225-1.762 1.795-4.463 2.349-6.896 1.98-2.601-.386-4.866-2.282-5.873-4.682 1.007-.486 2.064-.872 3.104-1.325.587 1.376 1.779 2.55 3.272 2.819 1.493.268 3.221-.101 4.195-1.343 1.04-1.275 1.04-3.02.99-4.58-.772.755-1.662 1.426-2.735 1.678-2.333.654-4.9-.151-6.695-1.729-1.812-1.577-2.886-4.01-2.785-6.426.05-2.735 1.594-5.369 3.926-6.795Zm3.473 2.148a4.413 4.413 0 0 0-2.634 1.526c-1.577 1.88-1.577 4.883.017 6.729.906 1.09 2.365 1.694 3.775 1.543 1.325-.134 2.55-.973 3.204-2.13 1.108-1.964.923-4.631-.57-6.343a4.129 4.129 0 0 0-3.792-1.325Z"/><path fill="#FA3913" d="M87.497 11.01c2.013-1.88 5.118-2.517 7.701-1.527 2.45.923 4.01 3.255 4.8 5.654-3.642 1.51-7.266 3.003-10.907 4.514.503.956 1.275 1.828 2.316 2.18 1.46.52 3.204.336 4.429-.637.487-.369.873-.856 1.242-1.325.922.62 1.845 1.224 2.768 1.845-1.309 1.963-3.507 3.34-5.872 3.557-2.618.32-5.403-.688-7.098-2.735-2.785-3.221-2.517-8.624.621-11.526Zm1.795 3.104c-.57.822-.805 1.829-.788 2.818 2.433-1.006 4.866-2.013 7.298-3.036-.402-.94-1.375-1.51-2.365-1.662-1.594-.285-3.255.57-4.145 1.88Z"/></g><defs><clipPath id="a"><path fill="#fff" d="M0 0h100v32.64H0z"/></clipPath></defs></svg>
